X:1
T:A Sinner Saved by Grace
T:A Sinner Saved by Grace
T:Albert Benjamin Simpson
T:Albert Benjamin Simpson, 1904
T:Public Domain Courtesy of the Cyber Hymnal™
T:Public Domain Courtesy of the Cyber Hymnal™
C:Albert Benjamin Simpson
Z:Public Domain
Z:Courtesy of the Cyber Hymnal™
%%score ( 1 2 ) ( 3 4 )
L:1/8
Q:1/4=97
M:4/4
K:C
V:1 treble 
V:2 treble 
V:3 bass 
V:4 bass 
V:1
 [EG][CE][DF] | [EG]4- [EG]G[FB][FG] | [Ec]2 [EG]3 [EG][EG][EG] | [FA]4- [FA]G[FB][Ec] | %4
w: 1.~When I shall|reach * my home in|glo- ry, And see my|Sav- * ior face to|
w: 2.~I’ll tell how|by * His blood He|bought me With all our|lost * and ran- somed|
w: 3.~I’ll tell them|how * His Spir- it|sealed me And cleansed me|from * each sin- ful|
w: 4.~I’ll sing how|lov- * ing- ly He|led me At last to|yon- * der heav’n- ly|
w: 5.~Yes, when I|reach * my home in|glo- ry And see my|Sav- * ior face to|
 [Fd]4- [Fd][FG][FG][FG] | [Ge]4- [Ge][Gd][Gc][GB] | [GB]4 [FA]2 [_Ec]2 | %7
w: face, * This shall be|all * my song and|sto- ry, A|
w: race; * And how, so|ten- * der- ly He|sought me And|
w: trace; * And how when|sick * and worn He|healed me And|
w: place; * And how He|shep- * herd- ed and|fed me And|
w: face; * This shall be|all * my song and|sto- ry, A|
 [EG] !fermata![Ec]3 !fermata![Fd]3 [FB] | [Ec]6 ||"^Refrain" [DB]>[Ec] | [Fd]6 [FB]>[FG] | c6 G2 | %12
w: sin- ner saved by|grace.||||
w: saved me by His|grace.||||
w: saved me by His|grace.|Saved by|grace, saved by|grace, For-|
w: kept me by His|grace.||||
w: sin- ner saved by|grace.||||
 [FA]2 [FA]>[FA] [Dd]2 [Dc]2 | c4 !fermata![FB][FG][Ge][Fd] | c4- [Ec][CE][B,F][CG] | A6 [_Ec]2 | %16
w: ||||
w: ||||
w: ev- er I’ll tell the|story, How Je- sus saved|* me by His grace,|* And|
w: ||||
w: ||||
 [=EG]3 [Gc] [Ge]2 [Ec]2 | [Fd]4 [Ec] |] %18
w: ||
w: ||
w: brought me to His|glo- ry.|
w: ||
w: ||
V:2
 x3 | x5 G x2 | x8 | x5 G x2 | x8 | x8 | x8 | x8 | x6 || x2 | x8 | (E2 G>F E2) G2 | x8 | %13
 F2 F F x4 | E E E E x4 | (CFFF F2) x2 | x8 | x5 |] %18
V:3
 [C,C][C,G,][C,G,] | [C,C]4- [C,C][E,C]G,[G,B,] | [C,C]2 [C,C]3 [C,C][C,C][C,C] | %3
w: ~ ~ ~|~ * ~ ~ ~|~ ~ ~ ~ ~|
 [F,C]4- [F,C][E,C][D,G,][C,G,] | [G,,B,]4- [G,,B,][G,B,][G,B,][G,B,] | %5
w: ~ * ~ ~ ~|~ * ~ ~ ~|
 [C,C]4- [C,C][D,B,][E,C][E,C] | [F,C]4 [F,C]2 [^F,C]2 | %7
w: ~ * ~ ~ ~|~ ~ ~|
 [G,C] !fermata![G,C]3 !fermata![G,B,]3 [G,D] | [C,C]6 || G,>G, | %10
w: ~ ~ ~ ~|~|~ ~|
 [G,B,]2 [G,B,]>[G,B,] [G,B,]2 [G,D]>[G,B,] | (G,2 B,>A, G,2) [E,C]2 | %12
w: ~ Saved by grace, saved by|grace, * * * ~|
 [F,C]2 [F,C]>[F,C] [^F,A,]2 [F,A,]2 | G,2 B,C !fermata![G,D][G,B,][G,B,][G,B,] | %14
w: ~ ~ ~ ~ ~|sto- ry of love, ~ ~ ~|
 [C,C][C,G,][C,G,][C,G,] [C,G,][C,G,][D,G,][E,G,] | F,[=F,C] [F,C]2 [F,C]2 [^F,C]2 | %16
w: ~ How Je- sus saved ~ ~ ~|me by His grace, *|
 [G,C]3 [G,E] [G,C]2 G,2 | [G,,B,]4 [C,G,] |] %18
w: ||
V:4
 x3 | x6 G, x | x8 | x8 | x8 | x8 | x8 | x8 | x6 || G,>G, | x8 | C,6 x2 | x8 | G,4 x4 | x8 | %15
 ^F, x7 | x6 G,2 | x5 |] %18

